X: 23894
T: Loch Bushmills
R: reel
M: 4/4
K: Eminor
_B2||.B2 BA BGEA-|ABBA BGEz|GAAG FGAB|
cABG A2GA|BeBA BGE.A|zBBA BGEE
[1 GAAG FGFE|DEFD EFGA:|2 GAAG FGFE|DEFD E3z||
FGFG EEE.F|zGFG EEEz|defg gaag|
fgfe ^cddd|FGFG EEE.F|zGFG EEEz|
[1 BcBG ABAF|EGBG AGFD:|2 BGEA FDEF|EGBG AGFG||

